public/images/logos/twitch.svg

<?xml version="1.0" encoding="UTF-8" standalone="no"?>
<!-- Uploaded to: SVG Repo, www.svgrepo.com, Generator: SVG Repo Mixer Tools -->

<svg fill="#000000" width="32" height="32" viewBox="0 0 1.28 1.28" version="1.1" id="svg1" sodipodi:docname="twitch.svg" inkscape:version="1.4-beta2 (9aaf4f34, 2024-07-30)" xmlns:inkscape="http://www.inkscape.org/namespaces/inkscape" xmlns:sodipodi="http://sodipodi.sourceforge.net/DTD/sodipodi-0.dtd" xmlns="http://www.w3.org/2000/svg" xmlns:svg="http://www.w3.org/2000/svg" xmlns:rdf="http://www.w3.org/1999/02/22-rdf-syntax-ns#" xmlns:cc="http://creativecommons.org/ns#" xmlns:dc="http://purl.org/dc/elements/1.1/">
  <defs id="defs1" />
  <sodipodi:namedview id="namedview1" pagecolor="#ffffff" bordercolor="#000000" borderopacity="0.25" inkscape:showpageshadow="2" inkscape:pageopacity="0.0" inkscape:pagecheckerboard="0" inkscape:deskcolor="#d1d1d1" inkscape:zoom="5.2820688" inkscape:cx="22.245072" inkscape:cy="41.745007" inkscape:window-width="1440" inkscape:window-height="790" inkscape:window-x="0" inkscape:window-y="0" inkscape:window-maximized="1" inkscape:current-layer="svg1" />
  <title id="title1">twitch</title>
  <path d="M 1.0971246,0.5943345 0.9142918,0.7771672 H 0.7314164 l -0.16,0.16 v -0.16 H 0.3657082 V 0.0914591 H 1.0971246 Z M 0.32,4.27e-5 0.0914164,0.2286263 V 1.0514164 H 0.3657082 V 1.28 L 0.5942918,1.0514164 H 0.7771246 L 1.1885836,0.64 V 0 Z m 0.5485836,0.2514164 h 0.091416 v 0.2742918 h -0.091416 z m -0.251459,0 h 0.091459 v 0.2742918 h -0.091502 z" id="path1" style="stroke-width:0.042678" />
  <metadata id="metadata1">
    <rdf:RDF>
      <cc:Work rdf:about="">
        <dc:title>twitch</dc:title>
      </cc:Work>
    </rdf:RDF>
  </metadata>
</svg>

<svg width="32" height="32" viewBox="0 0 1.28 1.28" xmlns="http://www.w3.org/2000/svg">
  <path d="M1.097.594.914.777H.731l-.16.16v-.16H.366V.091h.731ZM.32 0 .091.229v.822h.275v.229l.228-.229h.183L1.19.64V0Zm.549.251H.96v.275H.869zm-.252 0H.71v.275H.617z" style="stroke-width:.042678"/>
</svg>
